archdroid-icon-theme/Archdroid-ArchBlue/mimetypes/scalable/multipart-encrypted.svg

<svg fill="#1793D1" height="48" viewBox="0 0 48 48" width="48" xmlns="http://www.w3.org/2000/svg"><path d="m10 6c-2.21 0-4 1.79-4 4v28c0 2.21 1.79 4 4 4h28c2.21 0 4-1.79 4-4v-28c0-2.21-1.79-4-4-4zm4.617188 4.292969c.502499 0 .825312.225156 1.132812.660156.3075.405.501953 1.065703.501953 1.845703 0 1.635-.779765 2.408203-1.634765 2.408203-.885001 0-1.619141-.990312-1.619141-2.445312s.75664-2.46875 1.619141-2.46875zm11.25 0c.5025 0 .825312.225156 1.132812.660156.3075.405.501953 1.065703.501953 1.845703 0 1.635-.779765 2.408203-1.634765 2.408203-.885001 0-1.619141-.990312-1.619141-2.445312s.75664-2.46875 1.619141-2.46875zm3.75 0c.5025 0 .825312.225156 1.132812.660156.3075.405.501953 1.065703.501953 1.845703 0 1.635-.779765 2.408203-1.634765 2.408203-.885 0-1.619141-.990312-1.619141-2.445312s.75664-2.46875 1.619141-2.46875zm3.75 0c.502499 0 .825312.225156 1.132812.660156.3075.405.501953 1.065703.501953 1.845703 0 1.635-.779765 2.408203-1.634765 2.408203-.885001 0-1.619141-.990312-1.619141-2.445312s.756641-2.46875 1.619141-2.46875zm-15.044922.097656h.5625v4.673828h-.824219v-3.720703l-.802735.240234-.203124-.509765zm3.75 0h.5625v4.673828h-.824219v-3.720703l-.802735.240234-.203124-.509765zm-7.447266.630859c-.435 0-.824219.660079-.824219 1.642578 0 .1725.02211.45711.03711.59961l1.365234-1.777344c-.12-.285-.330625-.464844-.578125-.464844zm11.25 0c-.435 0-.824219.660079-.824219 1.642578 0 .1725.02211.45711.03711.59961l1.365234-1.777344c-.12-.285-.330625-.464844-.578125-.464844zm3.75 0c-.435 0-.824219.660079-.824219 1.642578 0 .1725.02211.45711.03711.59961l1.365234-1.777344c-.12-.285-.330625-.464844-.578125-.464844zm3.75 0c-.435 0-.824219.660079-.824219 1.642578 0 .1725.02211.45711.03711.59961l1.365234-1.777344c-.12-.285-.330625-.464844-.578125-.464844zm-17.962891 1.191407-1.365234 1.779297c.12.285.330625.464843.578125.464843.435 0 .824219-.660078.824219-1.642578 0-.1725-.02211-.459062-.03711-.601562zm11.25 0-1.365234 1.779297c.12.285.330625.464843.578125.464843.435 0 .824219-.660078.824219-1.642578 0-.1725-.02211-.459062-.03711-.601562zm3.75 0-1.365234 1.779297c.12.285.330625.464843.578125.464843.435 0 .824219-.660078.824219-1.642578 0-.1725-.02211-.459062-.03711-.601562zm3.75 0-1.365234 1.779297c.12.285.330625.464843.578125.464843.435 0 .824219-.660078.824219-1.642578 0-.1725-.02211-.459062-.03711-.601562zm-15.794921 5.580078c.502499 0 .825312.225156 1.132812.660156.3075.405.501953 1.065703.501953 1.845703 0 1.635-.779765 2.408203-1.634765 2.408203-.885 0-1.619141-.990312-1.619141-2.445312s.75664-2.46875 1.619141-2.46875zm3.75 0c.502499 0 .825312.225156 1.132812.660156.3075.405.501953 1.065703.501953 1.845703 0 1.635-.779765 2.408203-1.634765 2.408203-.885 0-1.619141-.990312-1.619141-2.445312s.75664-2.46875 1.619141-2.46875zm11.25 0c.502499 0 .825312.225156 1.132812.660156.3075.405.501953 1.065703.501953 1.845703 0 1.635-.779765 2.408203-1.634765 2.408203-.885001 0-1.619141-.990312-1.619141-2.445312s.756641-2.46875 1.619141-2.46875zm-18.794922.097656h.5625v4.673828h-.824219v-3.720703l-.802735.240234-.203124-.509765zm11.25 0h.5625v4.673828h-.824219v-3.720703l-.802735.240234-.203124-.509765zm3.75 0h.5625v4.673828h-.824219v-3.720703l-.802735.240234-.203124-.509765zm-11.197266.630859c-.435 0-.824219.660078-.824219 1.642578 0 .1725.02211.45711.03711.59961l1.365234-1.777344c-.12-.285-.330625-.464844-.578125-.464844zm3.75 0c-.435 0-.824219.660078-.824219 1.642578 0 .1725.02211.45711.03711.59961l1.365234-1.777344c-.12-.285-.330625-.464844-.578125-.464844zm11.25 0c-.435 0-.824219.660078-.824219 1.642578 0 .1725.02211.45711.03711.59961l1.365234-1.777344c-.12-.285-.330625-.464844-.578125-.464844zm-14.212891 1.191407-1.365234 1.779297c.12.285.330625.464843.578125.464843.435 0 .824219-.660078.824219-1.642578 0-.1725-.02211-.459062-.03711-.601562zm3.75 0-1.365234 1.779297c.12.285.330625.464843.578125.464843.435 0 .824219-.660078.824219-1.642578 0-.1725-.02211-.459062-.03711-.601562zm11.25 0-1.365234 1.779297c.12.285.330625.464843.578125.464843.435 0 .824219-.660078.824219-1.642578 0-.1725-.02211-.459062-.03711-.601562zm-15.794921 5.580078c.502499 0 .825312.225156 1.132812.660156.3075.405.501953 1.065703.501953 1.845703 0 1.635-.779765 2.408203-1.634765 2.408203-.885 0-1.619141-.990312-1.619141-2.445312s.75664-2.46875 1.619141-2.46875zm3.75 0c.502499 0 .825312.225156 1.132812.660156.3075.405.501953 1.065703.501953 1.845703 0 1.635-.779765 2.408203-1.634765 2.408203-.885 0-1.619141-.990312-1.619141-2.445312s.75664-2.46875 1.619141-2.46875zm7.5 0c.5025 0 .825312.225156 1.132812.660156.3075.405.501953 1.065703.501953 1.845703 0 1.635-.779765 2.408203-1.634765 2.408203-.885 0-1.619141-.990312-1.619141-2.445312s.75664-2.46875 1.619141-2.46875zm-15.044922.097656h.5625v4.673828h-.824219v-3.720703l-.802735.240234-.203124-.509765zm11.25 0h.5625v4.673828h-.824219v-3.720703l-.802735.240234-.203124-.509765zm7.5 0h.5625v4.673828h-.824219v-3.720703l-.802735.240234-.203124-.509765zm-14.947266.630859c-.435 0-.824219.660078-.824219 1.642578 0 .1725.02211.45711.03711.59961l1.365234-1.777344c-.12-.285-.330625-.464844-.578125-.464844zm3.75 0c-.435 0-.824219.660078-.824219 1.642578 0 .1725.02211.45711.03711.59961l1.365234-1.777344c-.12-.285-.330625-.464844-.578125-.464844zm7.5 0c-.435 0-.824219.660078-.824219 1.642578 0 .1725.02211.45711.03711.59961l1.365234-1.777344c-.12-.285-.330625-.464844-.578125-.464844zm-10.462891 1.191407-1.365234 1.779297c.12.285.330625.464843.578125.464843.435 0 .824219-.660078.824219-1.642578 0-.1725-.02211-.459062-.03711-.601562zm3.75 0-1.365234 1.779297c.12.285.330625.464843.578125.464843.435 0 .824219-.660078.824219-1.642578 0-.1725-.02211-.459062-.03711-.601562zm7.5 0-1.365234 1.779297c.12.285.330625.464843.578125.464843.435 0 .824219-.660078.824219-1.642578 0-.1725-.02211-.459062-.03711-.601562zm-12.044921 5.580078c.502499 0 .825312.225156 1.132812.660156.3075.405.501953 1.065703.501953 1.845703 0 1.635-.779765 2.408203-1.634765 2.408203-.885 0-1.619141-.990312-1.619141-2.445312s.75664-2.46875 1.619141-2.46875zm15 0c.502499 0 .825312.225156 1.132812.660156.3075.405.501953 1.065703.501953 1.845703 0 1.635-.779765 2.408203-1.634765 2.408203-.885001 0-1.619141-.990312-1.619141-2.445312s.756641-2.46875 1.619141-2.46875zm-18.794922.097656h.5625v4.673828h-.824219v-3.720703l-.802735.240234-.203124-.509765zm7.5 0h.5625v4.673828h-.824219v-3.720703l-.802735.240234-.203124-.509765zm3.75 0h.5625v4.673828h-.824219v-3.720703l-.802735.240234-.203124-.509765zm3.75 0h.5625v4.673828h-.824219v-3.720703l-.802735.240234-.203124-.509765zm-11.197266.630859c-.435 0-.824219.660078-.824219 1.642578 0 .1725.02211.45711.03711.59961l1.365234-1.777344c-.12-.285-.330625-.464844-.578125-.464844zm15 0c-.435 0-.824219.660078-.824219 1.642578 0 .1725.02211.45711.03711.59961l1.365234-1.777344c-.12-.285-.330625-.464844-.578125-.464844zm-14.212891 1.191407-1.365234 1.779297c.12.285.330625.464843.578125.464843.435 0 .824219-.660078.824219-1.642578 0-.1725-.02211-.459062-.03711-.601562zm15 0-1.365234 1.779297c.12.285.330625.464843.578125.464843.435 0 .824219-.660078.824219-1.642578 0-.1725-.02211-.459062-.03711-.601562z" fill="#1793D1"/></svg>

<svg fill="#1793D1" height="48" version="1.1" viewBox="0 0 48 48" width="48" xmlns="http://www.w3.org/2000/svg" xmlns:xlink="http://www.w3.org/1999/xlink"><defs><linearGradient id="a" gradientTransform="scale(1.0058652 .994169)" gradientUnits="userSpaceOnUse" x1="45.447727" x2="45.447727" y1="92.539597" y2="7.01654"><stop offset="0"/><stop offset="1" stop-opacity=".588235"/></linearGradient><filter id="b" color-interpolation-filters="sRGB"><feGaussianBlur stdDeviation="1.71"/></filter></defs><path d="M10 6C7.79 6 6 7.79 6 10L6 38C6 40.21 7.79 42 10 42L38 42C40.21 42 42 40.21 42 38L42 10C42 7.79 40.21 6 38 6L10 6zM14.617188 10.292969C15.119687 10.292969 15.4425 10.518125 15.75 10.953125 16.0575 11.358125 16.251953 12.018828 16.251953 12.798828 16.251953 14.433828 15.472188 15.207031 14.617188 15.207031 13.732187 15.207031 12.998047 14.216719 12.998047 12.761719 12.998047 11.306719 13.754687 10.292969 14.617188 10.292969zM25.867188 10.292969C26.369688 10.292969 26.6925 10.518125 27 10.953125 27.3075 11.358125 27.501953 12.018828 27.501953 12.798828 27.501953 14.433828 26.722188 15.207031 25.867188 15.207031 24.982187 15.207031 24.248047 14.216719 24.248047 12.761719 24.248047 11.306719 25.004687 10.292969 25.867188 10.292969zM29.617188 10.292969C30.119688 10.292969 30.4425 10.518125 30.75 10.953125 31.0575 11.358125 31.251953 12.018828 31.251953 12.798828 31.251953 14.433828 30.472188 15.207031 29.617188 15.207031 28.732188 15.207031 27.998047 14.216719 27.998047 12.761719 27.998047 11.306719 28.754687 10.292969 29.617188 10.292969zM33.367188 10.292969C33.869687 10.292969 34.1925 10.518125 34.5 10.953125 34.8075 11.358125 35.001953 12.018828 35.001953 12.798828 35.001953 14.433828 34.222188 15.207031 33.367188 15.207031 32.482187 15.207031 31.748047 14.216719 31.748047 12.761719 31.748047 11.306719 32.504688 10.292969 33.367188 10.292969zM18.322266 10.390625L18.884766 10.390625 18.884766 15.064453 18.060547 15.064453 18.060547 11.34375 17.257812 11.583984 17.054688 11.074219 18.322266 10.390625zM22.072266 10.390625L22.634766 10.390625 22.634766 15.064453 21.810547 15.064453 21.810547 11.34375 21.007812 11.583984 20.804688 11.074219 22.072266 10.390625zM14.625 11.021484C14.19 11.021484 13.800781 11.681563 13.800781 12.664062 13.800781 12.836562 13.822891 13.121172 13.837891 13.263672L15.203125 11.486328C15.083125 11.201328 14.8725 11.021484 14.625 11.021484zM25.875 11.021484C25.44 11.021484 25.050781 11.681563 25.050781 12.664062 25.050781 12.836562 25.072891 13.121172 25.087891 13.263672L26.453125 11.486328C26.333125 11.201328 26.1225 11.021484 25.875 11.021484zM29.625 11.021484C29.19 11.021484 28.800781 11.681563 28.800781 12.664062 28.800781 12.836562 28.822891 13.121172 28.837891 13.263672L30.203125 11.486328C30.083125 11.201328 29.8725 11.021484 29.625 11.021484zM33.375 11.021484C32.94 11.021484 32.550781 11.681563 32.550781 12.664062 32.550781 12.836562 32.572891 13.121172 32.587891 13.263672L33.953125 11.486328C33.833125 11.201328 33.6225 11.021484 33.375 11.021484zM15.412109 12.212891L14.046875 13.992188C14.166875 14.277188 14.3775 14.457031 14.625 14.457031 15.06 14.457031 15.449219 13.796953 15.449219 12.814453 15.449219 12.641953 15.427109 12.355391 15.412109 12.212891zM26.662109 12.212891L25.296875 13.992188C25.416875 14.277188 25.6275 14.457031 25.875 14.457031 26.31 14.457031 26.699219 13.796953 26.699219 12.814453 26.699219 12.641953 26.677109 12.355391 26.662109 12.212891zM30.412109 12.212891L29.046875 13.992188C29.166875 14.277188 29.3775 14.457031 29.625 14.457031 30.06 14.457031 30.449219 13.796953 30.449219 12.814453 30.449219 12.641953 30.427109 12.355391 30.412109 12.212891zM34.162109 12.212891L32.796875 13.992188C32.916875 14.277188 33.1275 14.457031 33.375 14.457031 33.81 14.457031 34.199219 13.796953 34.199219 12.814453 34.199219 12.641953 34.177109 12.355391 34.162109 12.212891zM18.367188 17.792969C18.869687 17.792969 19.1925 18.018125 19.5 18.453125 19.8075 18.858125 20.001953 19.518828 20.001953 20.298828 20.001953 21.933828 19.222188 22.707031 18.367188 22.707031 17.482188 22.707031 16.748047 21.716719 16.748047 20.261719 16.748047 18.806719 17.504687 17.792969 18.367188 17.792969zM22.117188 17.792969C22.619687 17.792969 22.9425 18.018125 23.25 18.453125 23.5575 18.858125 23.751953 19.518828 23.751953 20.298828 23.751953 21.933828 22.972188 22.707031 22.117188 22.707031 21.232188 22.707031 20.498047 21.716719 20.498047 20.261719 20.498047 18.806719 21.254687 17.792969 22.117188 17.792969zM33.367188 17.792969C33.869687 17.792969 34.1925 18.018125 34.5 18.453125 34.8075 18.858125 35.001953 19.518828 35.001953 20.298828 35.001953 21.933828 34.222188 22.707031 33.367188 22.707031 32.482187 22.707031 31.748047 21.716719 31.748047 20.261719 31.748047 18.806719 32.504688 17.792969 33.367188 17.792969zM14.572266 17.890625L15.134766 17.890625 15.134766 22.564453 14.310547 22.564453 14.310547 18.84375 13.507812 19.083984 13.304688 18.574219 14.572266 17.890625zM25.822266 17.890625L26.384766 17.890625 26.384766 22.564453 25.560547 22.564453 25.560547 18.84375 24.757812 19.083984 24.554688 18.574219 25.822266 17.890625zM29.572266 17.890625L30.134766 17.890625 30.134766 22.564453 29.310547 22.564453 29.310547 18.84375 28.507812 19.083984 28.304688 18.574219 29.572266 17.890625zM18.375 18.521484C17.94 18.521484 17.550781 19.181562 17.550781 20.164062 17.550781 20.336562 17.572891 20.621172 17.587891 20.763672L18.953125 18.986328C18.833125 18.701328 18.6225 18.521484 18.375 18.521484zM22.125 18.521484C21.69 18.521484 21.300781 19.181562 21.300781 20.164062 21.300781 20.336562 21.322891 20.621172 21.337891 20.763672L22.703125 18.986328C22.583125 18.701328 22.3725 18.521484 22.125 18.521484zM33.375 18.521484C32.94 18.521484 32.550781 19.181562 32.550781 20.164062 32.550781 20.336562 32.572891 20.621172 32.587891 20.763672L33.953125 18.986328C33.833125 18.701328 33.6225 18.521484 33.375 18.521484zM19.162109 19.712891L17.796875 21.492188C17.916875 21.777188 18.1275 21.957031 18.375 21.957031 18.81 21.957031 19.199219 21.296953 19.199219 20.314453 19.199219 20.141953 19.177109 19.855391 19.162109 19.712891zM22.912109 19.712891L21.546875 21.492188C21.666875 21.777188 21.8775 21.957031 22.125 21.957031 22.56 21.957031 22.949219 21.296953 22.949219 20.314453 22.949219 20.141953 22.927109 19.855391 22.912109 19.712891zM34.162109 19.712891L32.796875 21.492188C32.916875 21.777188 33.1275 21.957031 33.375 21.957031 33.81 21.957031 34.199219 21.296953 34.199219 20.314453 34.199219 20.141953 34.177109 19.855391 34.162109 19.712891zM18.367188 25.292969C18.869687 25.292969 19.1925 25.518125 19.5 25.953125 19.8075 26.358125 20.001953 27.018828 20.001953 27.798828 20.001953 29.433828 19.222188 30.207031 18.367188 30.207031 17.482188 30.207031 16.748047 29.216719 16.748047 27.761719 16.748047 26.306719 17.504687 25.292969 18.367188 25.292969zM22.117188 25.292969C22.619687 25.292969 22.9425 25.518125 23.25 25.953125 23.5575 26.358125 23.751953 27.018828 23.751953 27.798828 23.751953 29.433828 22.972188 30.207031 22.117188 30.207031 21.232188 30.207031 20.498047 29.216719 20.498047 27.761719 20.498047 26.306719 21.254687 25.292969 22.117188 25.292969zM29.617188 25.292969C30.119688 25.292969 30.4425 25.518125 30.75 25.953125 31.0575 26.358125 31.251953 27.018828 31.251953 27.798828 31.251953 29.433828 30.472188 30.207031 29.617188 30.207031 28.732188 30.207031 27.998047 29.216719 27.998047 27.761719 27.998047 26.306719 28.754687 25.292969 29.617188 25.292969zM14.572266 25.390625L15.134766 25.390625 15.134766 30.064453 14.310547 30.064453 14.310547 26.34375 13.507812 26.583984 13.304688 26.074219 14.572266 25.390625zM25.822266 25.390625L26.384766 25.390625 26.384766 30.064453 25.560547 30.064453 25.560547 26.34375 24.757812 26.583984 24.554688 26.074219 25.822266 25.390625zM33.322266 25.390625L33.884766 25.390625 33.884766 30.064453 33.060547 30.064453 33.060547 26.34375 32.257812 26.583984 32.054688 26.074219 33.322266 25.390625zM18.375 26.021484C17.94 26.021484 17.550781 26.681562 17.550781 27.664062 17.550781 27.836562 17.572891 28.121172 17.587891 28.263672L18.953125 26.486328C18.833125 26.201328 18.6225 26.021484 18.375 26.021484zM22.125 26.021484C21.69 26.021484 21.300781 26.681562 21.300781 27.664062 21.300781 27.836562 21.322891 28.121172 21.337891 28.263672L22.703125 26.486328C22.583125 26.201328 22.3725 26.021484 22.125 26.021484zM29.625 26.021484C29.19 26.021484 28.800781 26.681562 28.800781 27.664062 28.800781 27.836562 28.822891 28.121172 28.837891 28.263672L30.203125 26.486328C30.083125 26.201328 29.8725 26.021484 29.625 26.021484zM19.162109 27.212891L17.796875 28.992188C17.916875 29.277188 18.1275 29.457031 18.375 29.457031 18.81 29.457031 19.199219 28.796953 19.199219 27.814453 19.199219 27.641953 19.177109 27.355391 19.162109 27.212891zM22.912109 27.212891L21.546875 28.992188C21.666875 29.277188 21.8775 29.457031 22.125 29.457031 22.56 29.457031 22.949219 28.796953 22.949219 27.814453 22.949219 27.641953 22.927109 27.355391 22.912109 27.212891zM30.412109 27.212891L29.046875 28.992188C29.166875 29.277188 29.3775 29.457031 29.625 29.457031 30.06 29.457031 30.449219 28.796953 30.449219 27.814453 30.449219 27.641953 30.427109 27.355391 30.412109 27.212891zM18.367188 32.792969C18.869687 32.792969 19.1925 33.018125 19.5 33.453125 19.8075 33.858125 20.001953 34.518828 20.001953 35.298828 20.001953 36.933828 19.222188 37.707031 18.367188 37.707031 17.482188 37.707031 16.748047 36.716719 16.748047 35.261719 16.748047 33.806719 17.504687 32.792969 18.367188 32.792969zM33.367188 32.792969C33.869687 32.792969 34.1925 33.018125 34.5 33.453125 34.8075 33.858125 35.001953 34.518828 35.001953 35.298828 35.001953 36.933828 34.222188 37.707031 33.367188 37.707031 32.482187 37.707031 31.748047 36.716719 31.748047 35.261719 31.748047 33.806719 32.504688 32.792969 33.367188 32.792969zM14.572266 32.890625L15.134766 32.890625 15.134766 37.564453 14.310547 37.564453 14.310547 33.84375 13.507812 34.083984 13.304688 33.574219 14.572266 32.890625zM22.072266 32.890625L22.634766 32.890625 22.634766 37.564453 21.810547 37.564453 21.810547 33.84375 21.007812 34.083984 20.804688 33.574219 22.072266 32.890625zM25.822266 32.890625L26.384766 32.890625 26.384766 37.564453 25.560547 37.564453 25.560547 33.84375 24.757812 34.083984 24.554688 33.574219 25.822266 32.890625zM29.572266 32.890625L30.134766 32.890625 30.134766 37.564453 29.310547 37.564453 29.310547 33.84375 28.507812 34.083984 28.304688 33.574219 29.572266 32.890625zM18.375 33.521484C17.94 33.521484 17.550781 34.181562 17.550781 35.164062 17.550781 35.336562 17.572891 35.621172 17.587891 35.763672L18.953125 33.986328C18.833125 33.701328 18.6225 33.521484 18.375 33.521484zM33.375 33.521484C32.94 33.521484 32.550781 34.181562 32.550781 35.164062 32.550781 35.336562 32.572891 35.621172 32.587891 35.763672L33.953125 33.986328C33.833125 33.701328 33.6225 33.521484 33.375 33.521484zM19.162109 34.712891L17.796875 36.492188C17.916875 36.777188 18.1275 36.957031 18.375 36.957031 18.81 36.957031 19.199219 36.296953 19.199219 35.314453 19.199219 35.141953 19.177109 34.855391 19.162109 34.712891zM34.162109 34.712891L32.796875 36.492188C32.916875 36.777188 33.1275 36.957031 33.375 36.957031 33.81 36.957031 34.199219 36.296953 34.199219 35.314453 34.199219 35.141953 34.177109 34.855391 34.162109 34.712891z"/><g display="none" transform="translate(48.1581 -1.90678)"><rect fill="url(#a)" filter="url(#b)" height="85" opacity=".9" rx="6" ry="6" width="86" x="5" y="7"/></g></svg>
